exported-svg/shield.svg

<?xml version="1.0" encoding="UTF-8"?>
<svg width="24px" height="24px" viewBox="0 0 24 24" version="1.1" xmlns="http://www.w3.org/2000/svg" xmlns:xlink="http://www.w3.org/1999/xlink">
    <!-- Generator: Sketch 55.2 (78181) - https://sketchapp.com -->
    <title>shield</title>
    <desc>Created with Sketch.</desc>
    <g id="shield" stroke="none" stroke-width="1" fill="none" fill-rule="evenodd">
        <path d="M12.7236068,22.9472136 C12.7921943,22.9129198 12.9155514,22.8481573 13.0859079,22.7538529 C13.3668549,22.5983287 13.6791374,22.415163 14.0149995,22.2052492 C14.973808,21.6059939 15.93253,20.9109204 16.8292523,20.1262883 C19.4271202,17.853154 21,15.2972242 21,12.5 L21,4.5 C21,4.27056618 20.8438513,4.07057463 20.6212678,4.01492875 L12.6212678,2.01492875 C12.5416478,1.99502375 12.4583522,1.99502375 12.3787322,2.01492875 L4.37873219,4.01492875 C4.15614869,4.07057463 4,4.27056618 4,4.5 L4,12.5 C4,15.2972242 5.57287984,17.853154 8.1707477,20.1262883 C9.06747002,20.9109204 10.026192,21.6059939 10.9850005,22.2052492 C11.3208626,22.415163 11.6331451,22.5983287 11.9140921,22.7538529 C12.0844486,22.8481573 12.2078057,22.9129198 12.2763932,22.9472136 C12.4171569,23.0175955 12.5828431,23.0175955 12.7236068,22.9472136 Z M12.5,21.9347328 C12.4686863,21.9176951 12.4347902,21.8990998 12.3984079,21.8789596 C12.1324799,21.7317495 11.8353874,21.5574933 11.5149995,21.3572508 C10.598808,20.7846311 9.68252998,20.1203296 8.8292523,19.3737117 C6.42712016,17.271846 5,14.9527758 5,12.5 L5,4.8903882 L12.5,3.0153882 L20,4.8903882 L20,12.5 C20,14.9527758 18.5728798,17.271846 16.1707477,19.3737117 C15.31747,20.1203296 14.401192,20.7846311 13.4850005,21.3572508 C13.1646126,21.5574933 12.8675201,21.7317495 12.6015921,21.8789596 C12.5652098,21.8990998 12.5313137,21.9176951 12.5,21.9347328 Z" id="Shape" fill="#000000" fill-rule="nonzero"></path>
    </g>
</svg>

<svg height="24" viewBox="0 0 24 24" width="24" xmlns="http://www.w3.org/2000/svg"><path d="m12.7236068 22.9472136c.0685875-.0342938.1919446-.0990563.3623011-.1933607.280947-.1555242.5932295-.3386899.9290916-.5486037.9588085-.5992553 1.9175305-1.2943288 2.8142528-2.0789609 2.5978679-2.2731343 4.1707477-4.8290641 4.1707477-7.6262883v-8c0-.22943382-.1561487-.42942537-.3787322-.48507125l-8-2c-.07962-.019905-.1629156-.019905-.2425356 0l-8.00000001 2c-.2225835.05564588-.37873219.25563743-.37873219.48507125v8c0 2.7972242 1.57287984 5.353154 4.1707477 7.6262883.89672232.7846321 1.8554443 1.4797056 2.8142528 2.0789609.3358621.2099138.6481446.3930795.9290916.5486037.1703565.0943044.2937136.1590669.3623011.1933607.1407637.0703819.3064499.0703819.4472136 0zm-.2236068-1.0124808c-.0313137-.0170377-.0652098-.035633-.1015921-.0557732-.265928-.1472101-.5630205-.3214663-.8834084-.5217088-.9161915-.5726197-1.83246952-1.2369212-2.6857472-1.9835391-2.40213214-2.1018657-3.8292523-4.4209359-3.8292523-6.8737117v-7.6096118l7.5-1.875 7.5 1.875v7.6096118c0 2.4527758-1.4271202 4.771846-3.8292523 6.8737117-.8532777.7466179-1.7695557 1.4109194-2.6857472 1.9835391-.3203879.2002425-.6174804.3744987-.8834084.5217088-.0363823.0201402-.0702784.0387355-.1015921.0557732z"/></svg>
